images/bg-top.svg

<svg xmlns="http://www.w3.org/2000/svg" width="375" height="658">
  <g fill="none" fill-rule="evenodd" stroke="#D0D5F6" stroke-width="2">
    <path
      d="M172.71-101C70.623-79.38 17.478-39.688 13.273 18.074c-6.307 86.643 231.598 17.186 136.358 198-95.241 180.813-181.318 185.29-136.358 298C58.233 626.784 178.96 685.954 319.21 641.2c93.501-29.836 144.652-140.545 153.453-332.126" />
    <path
      d="M214.7-101C134.617-82.012 92.926-47.154 89.628 3.575c-4.948 76.093 181.679 15.094 106.966 173.89C121.882 336.262 54.36 340.192 89.628 439.18c35.269 98.986 129.974 150.95 239.995 111.646C402.97 524.622 443.096 427.395 450 259.141" />
    <path
      d="M250.935-103c-60.604 16.56-92.153 46.963-94.65 91.208-3.743 66.367 137.488 13.165 80.949 151.664-56.54 138.5-107.638 141.927-80.948 228.261 26.69 86.335 98.359 131.656 181.618 97.376C393.41 442.655 423.775 357.855 429 211.108" />
  </g>
</svg>

<svg width="375" height="658" viewBox="0 0 375 658" fill="none" xmlns="http://www.w3.org/2000/svg">
<g id="bg-top" clip-path="url(#clip0_1_17)">
<g id="Group">
<path id="line3" d="M172.71 -101C70.623 -79.38 17.478 -39.688 13.273 18.074C6.96601 104.717 244.871 35.26 149.631 216.074C54.39 396.887 -31.687 401.364 13.273 514.074C58.233 626.784 178.96 685.954 319.21 641.2C412.711 611.364 463.862 500.655 472.663 309.074" stroke="#D0D5F6" stroke-width="2"/>
<path id="line2" d="M214.7 -101C134.617 -82.012 92.926 -47.154 89.628 3.575C84.68 79.668 271.307 18.669 196.594 177.465C121.882 336.262 54.36 340.192 89.628 439.18C124.897 538.166 219.602 590.13 329.623 550.826C402.97 524.622 443.096 427.395 450 259.141" stroke="#D0D5F6" stroke-width="2"/>
<path id="line1" d="M250.935 -103C190.331 -86.44 158.782 -56.037 156.285 -11.792C152.542 54.575 293.773 1.373 237.234 139.872C180.694 278.372 129.596 281.799 156.286 368.133C182.976 454.468 254.645 499.789 337.904 465.509C393.41 442.655 423.775 357.855 429 211.108" stroke="#D0D5F6" stroke-width="2"/>
</g>
</g>
<defs>
<clipPath id="clip0_1_17">
<rect width="375" height="658" fill="white"/>
</clipPath>
</defs>
</svg>
